X:1
P: Dusty Bob's Jig
C: aka Jack's Alive
C: Ryan's, arr. T. Traub 5-30-2004
R: Jig
M: 6/8
K: G
L: 1/8
|: D|"G" G2 G GAB| "D"A2 A ABc|"G"d2 B "Am"c2 A|"C"B2 G "D"AFD|"G"G2 G GAB|"D"A2 A ABc|"C"dcB "D"AGF|"G"G3 G2 :|
d|"G"g2 g gag|"D"f2 f fgf|"C"e2 d efg|"D"a2 g fed|"G"g2 g gag |"D"f2 f fgf |"A"e2 e efg |"D"a3 def||
"Em"g2 g gag|"B"f2 f fgf|"C"e2 d efg|"D"a2 g fed|"G"g2 d Bcd|"Am"e2 c ABc|"C"dcB "D"AGF|"G"G3 G2 |]
